Papirus/32x32/apps/libreoffice-draw.svg

<?xml version="1.0" encoding="UTF-8" standalone="no"?>
<!-- Created with Inkscape (http://www.inkscape.org/) -->

<svg
   width="32"
   height="32"
   viewBox="0 0 32 32"
   version="1.1"
   id="svg5"
   inkscape:version="1.2.2 (1:1.2.2+202305151914+b0a8486541)"
   sodipodi:docname="libreoffice-draw.svg"
   xmlns:inkscape="http://www.inkscape.org/namespaces/inkscape"
   xmlns:sodipodi="http://sodipodi.sourceforge.net/DTD/sodipodi-0.dtd"
   xmlns="http://www.w3.org/2000/svg"
   xmlns:svg="http://www.w3.org/2000/svg">
  <sodipodi:namedview
     id="namedview7"
     pagecolor="#ffffff"
     bordercolor="#000000"
     borderopacity="0.25"
     inkscape:showpageshadow="2"
     inkscape:pageopacity="0.0"
     inkscape:pagecheckerboard="0"
     inkscape:deskcolor="#d1d1d1"
     inkscape:document-units="px"
     showgrid="false"
     inkscape:zoom="25.9375"
     inkscape:cx="16"
     inkscape:cy="16"
     inkscape:window-width="1920"
     inkscape:window-height="1008"
     inkscape:window-x="0"
     inkscape:window-y="0"
     inkscape:window-maximized="1"
     inkscape:current-layer="svg5" />
  <defs
     id="defs2" />
  <path
     d="m 21,3 h 6 V 9 Z M 9,3 h 10 l 8,8 v 16 c 0,2.216 -1.784,4 -4,4 H 9 C 6.784,31 5,29.216 5,27 V 7 C 5,4.784 6.784,3 9,3 Z"
     style="opacity:0.2;fill:#000000;stroke-width:0.5;stroke-linecap:square"
     id="path1115"
     sodipodi:nodetypes="ccccsccssssss" />
  <path
     d="m 9,2 h 10 l 8,8 v 16 c 0,2.216 -1.784,4 -4,4 H 9 C 6.784,30 5,28.216 5,26 V 6 C 5,3.784 6.784,2 9,2 Z"
     style="opacity:1;fill:#f3ae16;fill-opacity:1;stroke-width:0.5;stroke-linecap:square"
     id="path1004" />
  <path
     d="m 21,2 h 6 v 6 z"
     style="fill:#e8a30c;fill-opacity:1;stroke-width:0.375;stroke-linecap:square"
     id="path1087" />
  <path
     d="m 12,12.499999 c -2.20914,0 -4,1.79086 -4,4 0,2.20914 1.79086,4 4,4 0.0541,-0.003 0.10815,-0.007 0.16211,-0.0117 l -2.07422,3.22852 c -0.22793,0.33178 0.01,0.78316 0.41211,0.7832 h 9 c 0.40253,-4e-5 0.64004,-0.45142 0.41211,-0.7832 l -1.42383,-2.2168 H 23 c 0.554,0 1,-0.446 1,-1 v -5 c 0,-0.554 -0.446,-1 -1,-1 h -5 c -0.554,0 -1,0.446 -1,1 v 3.68555 l -1.12109,-1.74414 c 0.0776,-0.30789 0.11823,-0.62391 0.12109,-0.94141 0,-2.20914 -1.79087,-4 -4,-4 z m 6,3 h 5 v 5 h -5 z"
     style="opacity:0.2;fill:#000000;stroke-width:1;stroke-linecap:round;stroke-linejoin:round"
     id="path2572" />
  <path
     d="m 18,13.999999 c -0.554,0 -1,0.446 -1,1 v 5 c 0,0.554 0.446,1 1,1 h 5 c 0.55399,0 1,-0.446 1,-1 v -5 c 0,-0.554 -0.44601,-1 -1,-1 z m 0,1 h 5 v 5 h -5 z"
     style="fill:#ffffff;stroke-width:1;stroke-linecap:round;stroke-linejoin:round"
     id="path2544" />
  <circle
     style="fill:#ffffff;stroke-linecap:square"
     id="path2672"
     cx="12.000009"
     cy="16"
     r="4" />
  <path
     d="m 15,16.000009 c -0.16469,-2e-5 -0.31882,0.0811 -0.41211,0.21679 l -4.5,7 c -0.22793,0.33178 0.01,0.78317 0.41211,0.7832 h 9 c 0.40253,-3e-5 0.64004,-0.45142 0.41211,-0.7832 l -4.5,-7 C 15.31881,16.081089 15.16469,15.999999 15,16.000009 Z"
     style="color:#000000;fill:#fde9b6;fill-opacity:1;stroke:none;stroke-width:1;stroke-linecap:round;stroke-linejoin:round;-inkscape-stroke:none"
     id="path2600" />
  <path
     id="path2508"
     style="opacity:0.2;fill:#ffffff;stroke-width:0.5;stroke-linecap:square"
     d="M 9 2 C 6.7840022 2 5 3.7840024 5 6 L 5 7 C 5 4.7840022 6.7840022 3 9 3 L 20 3 L 19 2 L 9 2 z M 21 2 L 22 3 L 27 3 L 27 2 L 21 2 z " />
</svg>

<svg xmlns="http://www.w3.org/2000/svg" width="32" height="32" version="1.1">
 <path style="opacity:0.2" d="M 9,3 H 19 L 27,11 V 27 C 27,29.216 25.216,31 23,31 H 9 C 6.784,31 5,29.216 5,27 V 7 C 5,4.784 6.784,3 9,3 Z"/>
 <path style="fill:#f3ae16" d="m 9,2 h 10 l 8,8 v 16 c 0,2.216 -1.784,4 -4,4 H 9 C 6.784,30 5,28.216 5,26 V 6 C 5,3.784 6.784,2 9,2 Z"/>
 <path style="fill:#e8a30c" d="m 21,2 h 6 v 6 z"/>
 <path style="opacity:0.2" d="m 12,12.5 c -2.21,0 -4,1.79 -4,4 0,2.21 1.79,4 4,4 0.05,-0 0.11,-0.01 0.16,-0.01 l -2.07,3.23 c -0.23,0.33 0.01,0.78 0.41,0.78 h 9 c 0.4,-0 0.64,-0.45 0.41,-0.78 l -1.42,-2.22 H 23 c 0.55,0 1,-0.45 1,-1 v -5 c 0,-0.55 -0.45,-1 -1,-1 h -5 c -0.55,0 -1,0.45 -1,1 v 3.69 l -1.12,-1.74 c 0.08,-0.31 0.12,-0.62 0.12,-0.94 0,-2.21 -1.79,-4 -4,-4 z m 6,3 h 5 v 5 h -5 z"/>
 <path style="fill:#fafafa" d="M 18,14 C 17.45,14 17,14.45 17,15 V 20 C 17,20.55 17.45,21 18,21 H 23 C 23.55,21 24,20.55 24,20 V 15 C 24,14.45 23.55,14 23,14 Z M 18,15 H 23 V 20 H 18 Z"/>
 <circle style="fill:#fafafa" cx="12" cy="16" r="4"/>
 <path style="fill:#fde9b6" d="m 15,16 c -0.16,-0 -0.32,0.08 -0.41,0.22 l -4.5,7 c -0.23,0.33 0.01,0.78 0.41,0.78 h 9 c 0.4,-0 0.64,-0.45 0.41,-0.78 l -4.5,-7 C 15.32,16.08 15.16,16 15,16 Z"/>
 <path style="opacity:0.2;fill:#ffffff" d="M 21,2 22,3 H 27 V 2 Z"/>
 <path style="opacity:0.2;fill:#ffffff" d="M 9 2 C 6.784 2 5 3.784 5 6 L 5 7 C 5 4.784 6.784 3 9 3 L 19 3 L 27 11 L 27 10 L 19 2 L 9 2 z"/>
</svg>
